X:315
T:Molloy's
R:reel
C:Paddy Killoran
D:Kevin Burke: Up Close
Z:Devin McCabe
M:C|
L:1/8
K:D
d2Ad fdAF|GFEF GABc|d2Ad fdAF|GAAG FDDd|
!dcde fdAF|GFEF GABc|d2Ad fdAF|GAAG FDD2|
!fggf gbag|fggf gfeg|fggf gbag|(3fga ea fddc|
!dfaf gbag|fgaf gfeg|feec dcBA|^GABc dgfe||
